remix/Map/map-pin-range-line.svg

<svg viewBox="0 0 24 24" fill="currentColor" xmlns="http://www.w3.org/2000/svg"><path d="M11 17.9381C7.05369 17.446 4 14.0796 4 10C4 5.58172 7.58172 2 12 2C16.4183 2 20 5.58172 20 10C20 14.0796 16.9463 17.446 13 17.9381V20.0116C16.9463 20.1039 20 20.7351 20 21.5C20 22.3284 16.4183 23 12 23C7.58172 23 4 22.3284 4 21.5C4 20.7351 7.05369 20.1039 11 20.0116V17.9381ZM12 16C15.3137 16 18 13.3137 18 10C18 6.68629 15.3137 4 12 4C8.68629 4 6 6.68629 6 10C6 13.3137 8.68629 16 12 16ZM12 12C10.8954 12 10 11.1046 10 10C10 8.89543 10.8954 8 12 8C13.1046 8 14 8.89543 14 10C14 11.1046 13.1046 12 12 12Z"/></svg>

<svg viewBox="0 0 24 24" xmlns="http://www.w3.org/2000/svg"><path fill="none" d="M0 0h24v24H0Z"/><path d="M11 17.938v0c-4.39-.56-7.49-4.57-6.93-8.95 .5-4 3.9-6.99 7.92-7v0c4.41-.01 8 3.57 8 7.99 0 4.03-3.01 7.44-7.01 7.94v2.07c3.94.09 7 .72 7 1.48 0 .82-3.59 1.5-8 1.5 -4.42 0-8-.68-8-1.5 0-.77 3.05-1.4 7-1.49v-2.08Zm1-1.94v0c3.31 0 6-2.69 6-6 0-3.32-2.69-6-6-6v0c-3.32 0-6 2.68-6 6 0 3.31 2.68 6 6 6Zm0-4v0c-1.11 0-2-.9-2-2 0-1.11.89-2 2-2v0c1.1 0 2 .89 2 2 0 1.1-.9 2-2 2Z"/></svg>
